packages/dnb-eufemia/assets/icons/horse_medium.svg

<svg width="24" height="24" viewBox="0 0 24 24" fill="none" xmlns="http://www.w3.org/2000/svg">
<path d="M8.41831 3.88852L5.2539 0.75C5.2539 0.75 4.55684 2.67453 4.80241 3.8883C5.13328 5.52366 7.51134 7.02661 7.51134 7.02661M8.41831 3.88852C9.8688 2.43613 12.4253 1.19833 15.1342 3.8883M8.41831 3.88852C7.70532 4.68847 7.06074 5.68162 7.51134 7.02661M7.40246 13.9759C5.87869 12.4628 5.87869 10.9497 6.38661 9.43659M8.92623 15.489C8.38716 16.2385 6.6648 18.2348 7.51134 20.0281C7.76488 20.5653 8.47354 21.2175 8.8658 21.8215C9.67739 23.0712 11.0906 23.25 12.4515 23.25C13.8124 23.25 14.3226 23.0712 15.1342 21.8215C15.5265 21.2175 16.2351 20.5653 16.4887 20.0281C17.2379 18.441 16.5879 16.4027 15.0213 15.489M7.51134 7.02661C9.46624 10.9791 11.1119 11.6269 14.5134 11.4541C14.7086 9.51514 16.0572 8.41927 16.4887 7.02661M16.4887 7.02661C16.4887 7.02661 18.8667 5.52366 19.1976 3.8883C19.4432 2.67453 18.7461 0.75 18.7461 0.75L15.1342 3.8883M16.4887 7.02661C16.7665 6.12995 15.1342 3.8883 15.1342 3.8883M16.4887 13.9759C17.5609 12.9672 18.0688 10.9497 17.5609 8.93222" stroke="black" stroke-width="1.5" stroke-linecap="round" stroke-linejoin="round"/>
<path d="M11.2612 19.0401C11.0864 19.7431 11.1178 20.3317 9.96413 20.0691C9.42259 19.9344 9.12529 19.2554 9.3001 18.5525C9.4749 17.8495 10.0556 17.3888 10.5971 17.5235C11.1387 17.6581 11.436 18.3372 11.2612 19.0401Z" fill="black"/>
<path d="M12.7396 19.0399C12.9144 19.7429 12.8831 20.3315 14.0363 20.069C14.5776 19.9344 14.8747 19.2554 14.6999 18.5525C14.5251 17.8495 13.9446 17.3888 13.4032 17.5234C12.8619 17.658 12.5648 18.337 12.7396 19.0399Z" fill="black"/>
</svg>

<svg width="24" height="24" viewBox="0 0 24 24" fill="none" xmlns="http://www.w3.org/2000/svg"><path d="M8.418 3.889 5.254.75s-.697 1.925-.452 3.138c.331 1.636 2.71 3.139 2.71 3.139m.906-3.138c1.45-1.453 4.007-2.69 6.716 0m-6.716 0c-.713.8-1.357 1.793-.907 3.138m-.109 6.949C5.88 12.463 5.88 10.95 6.387 9.436m2.54 6.053c-.54.75-2.262 2.746-1.416 4.54.254.536.963 1.189 1.355 1.793.811 1.25 2.225 1.428 3.585 1.428 1.361 0 1.872-.179 2.683-1.428.393-.604 1.101-1.257 1.355-1.794.749-1.587.099-3.625-1.468-4.539m-7.51-8.462c1.955 3.952 3.6 4.6 7.002 4.427.196-1.939 1.544-3.035 1.976-4.427m0 0s2.378-1.503 2.709-3.139c.245-1.213-.452-3.138-.452-3.138l-3.612 3.138m1.355 3.139c.277-.897-1.355-3.139-1.355-3.139m1.355 10.088c1.072-1.009 1.58-3.026 1.072-5.044m-6.979 9.736s-.112.688-.184.695c-.507.055-.363-.554-.363-.554.633-.059.61-.272.363-.555-.141-.001-.298.3-.32.379m3.348.035s.113.688.184.695c.508.055.363-.554.363-.554-.633-.059-.61-.272-.363-.555.142-.001.298.3.32.379" stroke="#000" stroke-width="1.5" stroke-linecap="round" stroke-linejoin="round"/></svg>
